icons/System/function-fill.svg

<svg xmlns="http://www.w3.org/2000/svg" viewBox="0 0 24 24">
    <g>
        <path fill="none" d="M0 0h24v24H0z"/>
        <path d="M3 3h8v8H3V3zm0 10h8v8H3v-8zM13 3h8v8h-8V3zm0 10h8v8h-8v-8z"/>
    </g>
</svg>

<svg viewBox="0 0 24 24" xmlns="http://www.w3.org/2000/svg"><path d="M3 3H11V11H3V3ZM3 13H11V21H3V13ZM13 3H21V11H13V3ZM13 13H21V21H13V13Z"/></svg>
